X:12
T:Spootiskerry
C:Ian Burns
M:4/4
L:1/8
K:G
DE | "G"G2 DE GDEG | "G"DEGA "D7"B2 AB | "G"G2 DE "Em"GDEG | "Am7"eged "D7"B2 AB | 
"G"G2 DE "D7/A"GDEG | "G/B"DEGA "Em"B2 AB | "Am7"g2 ed "D7"edBA | "G"B2 G2 G2 :|]
ef | "Em"g2 ed ed B2 | "G7"BABG "C"E2 DE | "G"GABd "Em"eged | "Am"B2 A2 "D7"A2 ef | 
"Em"g2 ed ed B2 | "G7"BABG "C"E2 DE | "G/D"GABd "D"eged | "G"B2 G2 G2 ef |
"Em"g2 ed ed B2 | "G7"BABG "C"E2 DE | "G"GABd "Em"eged | "Am"B2 A2 "D7"A2 DE | 
"G"G2 DE "D7/A"GDEG | "G/B"DEGA "Em"B2 AB | "Am7"g2 ed "D7"edBA | "G"B2 G2 G2 |]

%%newpage

